icons/user-calendar-32.svg

<svg id="icons" xmlns="http://www.w3.org/2000/svg" viewBox="0 0 32 32"><defs><style>.cls-1{fill:none;}</style></defs><path d="M16,13.76465a5.79981,5.79981,0,1,0-5.7998-5.79981A5.80609,5.80609,0,0,0,16,13.76465ZM16,3.165a4.79981,4.79981,0,1,1-4.7998,4.7998A4.80541,4.80541,0,0,1,16,3.165ZM7,28h6v1H6V21.5A6.5,6.5,0,0,1,12.5,15h6.84363a6.41994,6.41994,0,0,1,5.42622,3H23.729a5.39569,5.39569,0,0,0-4.19217-2H12.5A5.5,5.5,0,0,0,7,21.5Zm13-9h6v1H20Zm9,0v1h2v3H15V20h2V19H14V32H32V19Zm2,12H15V24H31ZM28,21H27V18h1ZM18,21V18h1v3Z"/><rect class="cls-1" width="32" height="32"/></svg>

<svg xmlns="http://www.w3.org/2000/svg" viewBox="0 0 32 32"><path d="M16 13.765a5.8 5.8 0 1 0-5.8-5.8 5.806 5.806 0 0 0 5.8 5.8zm0-10.6a4.8 4.8 0 1 1-4.8 4.8 4.805 4.805 0 0 1 4.8-4.8zM7 28h6v1H6v-7.5a6.5 6.5 0 0 1 6.5-6.5h6.844a6.42 6.42 0 0 1 5.426 3h-1.041a5.396 5.396 0 0 0-4.192-2H12.5A5.5 5.5 0 0 0 7 21.5zm13-9h6v1h-6zm9 0v1h2v3H15v-3h2v-1h-3v13h18V19zm2 12H15v-7h16zm-3-10h-1v-3h1zm-10 0v-3h1v3z"/><path fill="none" d="M0 0h32v32H0z"/></svg>
